img/icons/whatsapp-preto.svg

<svg width="16" height="16" viewBox="0 0 16 16" fill="none" xmlns="http://www.w3.org/2000/svg">
<g clip-path="url(#clip0_14_20)">
<path d="M0.0380859 16L1.16275 11.8913C0.468753 10.6887 0.104086 9.32533 0.104753 7.92733C0.106753 3.55667 3.66342 0 8.03342 0C10.1541 0.000666667 12.1448 0.826667 13.6421 2.32533C15.1388 3.824 15.9628 5.816 15.9621 7.93467C15.9601 12.306 12.4034 15.8627 8.03342 15.8627C6.70675 15.862 5.39942 15.5293 4.24142 14.8973L0.0380859 16ZM4.43609 13.462C5.55342 14.1253 6.62009 14.5227 8.03075 14.5233C11.6628 14.5233 14.6214 11.5673 14.6234 7.93333C14.6248 4.292 11.6801 1.34 8.03609 1.33867C4.40142 1.33867 1.44475 4.29467 1.44342 7.928C1.44275 9.41133 1.87742 10.522 2.60742 11.684L1.94142 14.116L4.43609 13.462ZM12.0274 9.81933C11.9781 9.73667 11.8461 9.68733 11.6474 9.588C11.4494 9.48867 10.4754 9.00933 10.2934 8.94333C10.1121 8.87733 9.98009 8.844 9.84742 9.04267C9.71542 9.24067 9.33542 9.68733 9.22009 9.81933C9.10475 9.95133 8.98875 9.968 8.79075 9.86867C8.59275 9.76933 7.95408 9.56067 7.19742 8.88533C6.60875 8.36 6.21075 7.71133 6.09542 7.51267C5.98009 7.31467 6.08342 7.20733 6.18209 7.10867C6.27142 7.02 6.38009 6.87733 6.47942 6.76133C6.58009 6.64667 6.61275 6.564 6.67942 6.43133C6.74542 6.29933 6.71275 6.18333 6.66275 6.084C6.61275 5.98533 6.21675 5.01 6.05209 4.61333C5.89075 4.22733 5.72742 4.27933 5.60609 4.27333L5.22609 4.26667C5.09409 4.26667 4.87942 4.316 4.69809 4.51467C4.51675 4.71333 4.00475 5.192 4.00475 6.16733C4.00475 7.14267 4.71475 8.08467 4.81342 8.21667C4.91275 8.34867 6.21009 10.35 8.19742 11.208C8.67008 11.412 9.03942 11.534 9.32675 11.6253C9.80142 11.776 10.2334 11.7547 10.5748 11.704C10.9554 11.6473 11.7468 11.2247 11.9121 10.762C12.0774 10.2987 12.0774 9.902 12.0274 9.81933Z" fill="#262626"/>
</g>
<defs>
<clipPath id="clip0_14_20">
<rect width="16" height="16" fill="white"/>
</clipPath>
</defs>
</svg>

<svg width="16" height="16" fill="none" xmlns="http://www.w3.org/2000/svg"><g clip-path="url(#a)"><path d="m.038 16 1.125-4.109A7.911 7.911 0 0 1 .105 7.927C.107 3.557 3.663 0 8.033 0c2.121 0 4.112.827 5.61 2.325a7.882 7.882 0 0 1 2.32 5.61c-.003 4.371-3.56 7.928-7.93 7.928a7.934 7.934 0 0 1-3.792-.966L.038 16Zm4.398-2.538c1.117.663 2.184 1.06 3.595 1.061a6.602 6.602 0 0 0 6.592-6.59A6.588 6.588 0 0 0 8.036 1.34a6.6 6.6 0 0 0-6.593 6.589c0 1.483.434 2.594 1.164 3.756l-.666 2.432 2.495-.654Zm7.591-3.643c-.049-.082-.18-.132-.38-.231-.198-.1-1.172-.579-1.354-.645-.18-.066-.313-.099-.446.1-.132.198-.512.644-.627.776-.115.132-.231.149-.43.05-.197-.1-.836-.308-1.593-.984a5.963 5.963 0 0 1-1.102-1.372c-.115-.198-.012-.306.087-.404.09-.089.198-.232.297-.348.101-.114.134-.197.2-.33.066-.132.034-.248-.016-.347-.05-.099-.446-1.074-.61-1.47-.162-.387-.326-.335-.447-.34l-.38-.007a.726.726 0 0 0-.528.248c-.181.198-.693.677-.693 1.652 0 .976.71 1.918.808 2.05.1.132 1.397 2.133 3.384 2.991.473.204.842.326 1.13.417.474.151.906.13 1.248.079.38-.057 1.172-.48 1.337-.942.165-.463.165-.86.115-.943Z" fill="#262626"/></g><defs><clipPath id="a"><path fill="#fff" d="M0 0h16v16H0z"/></clipPath></defs></svg>
